data/pieces/fancy/blackQueen.svg

<svg xmlns="http://www.w3.org/2000/svg" width="1000pt" height="1000pt" viewBox="0 0 1000 1000"><path d="M54 339c0-23 16-39 39-39s39 16 39 39c0 5-1 13-3 17-2 5-3 9-3 13 0 6 3 13 9 20l90 117c12 16 24 32 39 32 17 0 23-18 23-35V311c0-11-2-26-17-33-11-5-18-20-18-31 0-20 14-41 37-41s41 15 41 39c0 11-4 22-11 28s-12 12-12 21c0 10 3 18 8 29l72 165c6 13 13 24 27 24 11 0 20-4 23-20l50-242c2-9 4-21 4-29 0-9 0-16-11-22-12-7-28-17-28-43s22-48 48-48 48 22 48 48-16 36-28 43c-11 6-11 13-11 22 0 8 2 20 4 29l50 242c3 16 12 20 23 20 14 0 21-11 27-24l72-165c5-11 8-19 8-29 0-9-5-15-12-21s-11-17-11-28c0-24 18-39 41-39s37 21 37 41c0 11-7 26-18 31-15 7-17 22-17 33v192c0 17 6 35 23 35 15 0 27-16 39-32l90-117c6-7 9-14 9-20 0-4-1-8-3-13-2-4-3-12-3-17 0-23 16-39 39-39s39 16 39 39-18 37-31 39c-9 1-19 3-22 12l-70 188c-20 53-41 117-41 147 0 26 0 43 7 60l21 49c-96 39-214 58-310 58s-214-19-310-58l21-49c4-18 7-34 7-60 0-30-21-94-41-147l-70-188c-3-9-13-11-22-12-13-2-31-16-31-39" style="stroke-width:2;stroke-linecap:butt;stroke-linejoin:miter;stroke:#fff;stroke-opacity:1;stroke-miterlimit:10;fill-rule:nonzero;fill:#fff;fill-opacity:1"/><path d="M54 339c0-23 16-39 39-39s39 16 39 39c0 5-1 13-3 17-2 5-3 9-3 13 0 6 3 13 9 20l90 117c12 16 24 32 39 32 17 0 23-18 23-35V311c0-11-2-26-17-33-11-5-18-20-18-31 0-20 14-41 37-41s41 15 41 39c0 11-4 22-11 28s-12 12-12 21c0 10 3 18 8 29l72 165c6 13 13 24 27 24 11 0 20-4 23-20l50-242c2-9 4-21 4-29 0-9 0-16-11-22-12-7-28-17-28-43s22-48 48-48 48 22 48 48-16 36-28 43c-11 6-11 13-11 22 0 8 2 20 4 29l50 242c3 16 12 20 23 20 14 0 21-11 27-24l72-165c5-11 8-19 8-29 0-9-5-15-12-21s-11-17-11-28c0-24 18-39 41-39s37 21 37 41c0 11-7 26-18 31-15 7-17 22-17 33v192c0 17 6 35 23 35 15 0 27-16 39-32l90-117c6-7 9-14 9-20 0-4-1-8-3-13-2-4-3-12-3-17 0-23 16-39 39-39s39 16 39 39-18 37-31 39c-9 1-19 3-22 12l-70 188c-20 53-41 117-41 147 0 26 0 43 7 60l21 49c-96 39-214 58-310 58s-214-19-310-58l21-49c4-18 7-34 7-60 0-30-21-94-41-147l-70-188c-3-9-13-11-22-12-13-2-31-16-31-39m160 492 4 1c45-20 147-50 282-50s237 30 282 50l4-1c-4-14-9-29-13-38-13-31-170-55-273-55s-260 24-273 55c-4 9-9 24-13 38m4-179c0 7 2 16 6 26h2c29-50 190-60 274-60s245 10 274 60h2c4-10 6-19 6-26 0-22-23-33-45-42-51-21-151-32-237-32s-186 11-237 32c-22 9-45 20-45 42m15 41c0 18 2 57 15 57 27 0 124-38 124-58 0-9-53-16-97-16-15 0-42 10-42 17m189-13c0 12 58 32 78 32s78-20 78-32-58-34-78-34-78 22-78 34m206 12c0 20 97 58 124 58 13 0 15-39 15-57 0-7-27-17-42-17-44 0-97 7-97 16" style="stroke:none;fill-rule:nonzero;fill:#000;fill-opacity:1"/></svg>

<?xml version="1.0" encoding="UTF-8"?>
<!--
	(c) 2010 Alexey Kryukov

    This work is free; you can redistribute it and/or modify
    it under the terms of the GNU General Public License as published by
    the Free Software Foundation; either version 2 of the License, or
    (at your option) any later version.

    This work is distributed in the hope that it will be useful,
    but WITHOUT ANY WARRANTY; without even the implied warranty of
    MERCHANTABILITY or FITNESS FOR A PARTICULAR PURPOSE.  See the
    GNU General Public License for more details.

    You should have received a copy of the GNU General Public License
    along with this program; if not, write to the Free Software
    Foundation, Inc., 51 Franklin Street, Fifth Floor, Boston, MA 02110-1301 USA
-->
<svg xmlns="http://www.w3.org/2000/svg" xmlns:xlink="http://www.w3.org/1999/xlink" width="1000pt" height="1000pt" viewBox="0 0 1000 1000" version="1.1">
<g id="surface0">
<path style="stroke-width:2;stroke-linecap:butt;stroke-linejoin:miter;stroke:white;stroke-opacity:1;stroke-miterlimit:10;fill-rule:nonzero;fill:white;fill-opacity:1;" d="M 54 339 C 54 316 70 300 93 300 C 116 300 132 316 132 339 C 132 344 131 352 129 356 C 127 361 126 365 126 369 C 126 375 129 382 135 389 L 225 506 C 237 522 249 538 264 538 C 281 538 287 520 287 503 L 287 311 C 287 300 285 285 270 278 C 259 273 252 258 252 247 C 252 227 266 206 289 206 C 312 206 330 221 330 245 C 330 256 326 267 319 273 C 312 279 307 285 307 294 C 307 304 310 312 315 323 L 387 488 C 393 501 400 512 414 512 C 425 512 434 508 437 492 L 487 250 C 489 241 491 229 491 221 C 491 212 491 205 480 199 C 468 192 452 182 452 156 C 452 130 474 108 500 108 C 526 108 548 130 548 156 C 548 182 532 192 520 199 C 509 205 509 212 509 221 C 509 229 511 241 513 250 L 563 492 C 566 508 575 512 586 512 C 600 512 607 501 613 488 L 685 323 C 690 312 693 304 693 294 C 693 285 688 279 681 273 C 674 267 670 256 670 245 C 670 221 688 206 711 206 C 734 206 748 227 748 247 C 748 258 741 273 730 278 C 715 285 713 300 713 311 L 713 503 C 713 520 719 538 736 538 C 751 538 763 522 775 506 L 865 389 C 871 382 874 375 874 369 C 874 365 873 361 871 356 C 869 352 868 344 868 339 C 868 316 884 300 907 300 C 930 300 946 316 946 339 C 946 362 928 376 915 378 C 906 379 896 381 893 390 L 823 578 C 803 631 782 695 782 725 C 782 751 782 768 789 785 L 810 834 C 714 873 596 892 500 892 C 404 892 286 873 190 834 L 211 785 C 215 767 218 751 218 725 C 218 695 197 631 177 578 L 107 390 C 104 381 94 379 85 378 C 72 376 54 362 54 339 "/>
<path style="stroke:none;fill-rule:nonzero;fill:black;fill-opacity:1;" d="M 54 339 C 54 316 70 300 93 300 C 116 300 132 316 132 339 C 132 344 131 352 129 356 C 127 361 126 365 126 369 C 126 375 129 382 135 389 L 225 506 C 237 522 249 538 264 538 C 281 538 287 520 287 503 L 287 311 C 287 300 285 285 270 278 C 259 273 252 258 252 247 C 252 227 266 206 289 206 C 312 206 330 221 330 245 C 330 256 326 267 319 273 C 312 279 307 285 307 294 C 307 304 310 312 315 323 L 387 488 C 393 501 400 512 414 512 C 425 512 434 508 437 492 L 487 250 C 489 241 491 229 491 221 C 491 212 491 205 480 199 C 468 192 452 182 452 156 C 452 130 474 108 500 108 C 526 108 548 130 548 156 C 548 182 532 192 520 199 C 509 205 509 212 509 221 C 509 229 511 241 513 250 L 563 492 C 566 508 575 512 586 512 C 600 512 607 501 613 488 L 685 323 C 690 312 693 304 693 294 C 693 285 688 279 681 273 C 674 267 670 256 670 245 C 670 221 688 206 711 206 C 734 206 748 227 748 247 C 748 258 741 273 730 278 C 715 285 713 300 713 311 L 713 503 C 713 520 719 538 736 538 C 751 538 763 522 775 506 L 865 389 C 871 382 874 375 874 369 C 874 365 873 361 871 356 C 869 352 868 344 868 339 C 868 316 884 300 907 300 C 930 300 946 316 946 339 C 946 362 928 376 915 378 C 906 379 896 381 893 390 L 823 578 C 803 631 782 695 782 725 C 782 751 782 768 789 785 L 810 834 C 714 873 596 892 500 892 C 404 892 286 873 190 834 L 211 785 C 215 767 218 751 218 725 C 218 695 197 631 177 578 L 107 390 C 104 381 94 379 85 378 C 72 376 54 362 54 339 M 214 831 L 218 832 C 263 812 365 782 500 782 C 635 782 737 812 782 832 L 786 831 C 782 817 777 802 773 793 C 760 762 603 738 500 738 C 397 738 240 762 227 793 C 223 802 218 817 214 831 M 218 652 C 218 659 220 668 224 678 L 226 678 C 255 628 416 618 500 618 C 584 618 745 628 774 678 L 776 678 C 780 668 782 659 782 652 C 782 630 759 619 737 610 C 686 589 586 578 500 578 C 414 578 314 589 263 610 C 241 619 218 630 218 652 M 233 693 C 233 711 235 750 248 750 C 275 750 372 712 372 692 C 372 683 319 676 275 676 C 260 676 233 686 233 693 M 422 680 C 422 692 480 712 500 712 C 520 712 578 692 578 680 C 578 668 520 646 500 646 C 480 646 422 668 422 680 M 628 692 C 628 712 725 750 752 750 C 765 750 767 711 767 693 C 767 686 740 676 725 676 C 681 676 628 683 628 692 "/>
</g>
</svg>
